packages/components/icon/src/assets/icons/send.svg

<svg xmlns="http://www.w3.org/2000/svg" fill="none" viewBox="0 0 24 24"><path fill="currentColor" fill-rule="evenodd" d="M20.5506 3.3905c0 .05785-.0217.14462-.0651.26033L12.0682 20.5072c-.1157.2025-.2676.3038-.4556.3038-.1446 0-.2748-.0579-.3905-.1736L8.79236 18.186l-1.43182 1.8006c-.04339.0578-.07955.0831-.10847.0759-.02893-.0072-.04339-.047-.04339-.1193v-3.3409L18.3378 5.47314 5.77686 15.1705l-2.60331-2.6034C3.05785 12.4514 3 12.3285 3 12.1983c0-.188.10124-.3398.30372-.4555L20.1601 3.32541c.188-.08677.311-.10124.3688-.04339L20.811 3l-.2604.32541v.06509z" clip-rule="evenodd"/></svg>

<svg width="24" height="24" viewBox="0 0 24 24" fill="none" xmlns="http://www.w3.org/2000/svg">
<path fill-rule="evenodd" clip-rule="evenodd" d="M20.5506 3.3905C20.5506 3.44835 20.5289 3.53512 20.4855 3.65083L12.0682 20.5072C11.9525 20.7097 11.8006 20.811 11.6126 20.811C11.468 20.811 11.3378 20.7531 11.2221 20.6374L8.79236 18.186L7.36054 19.9866C7.31715 20.0444 7.28099 20.0697 7.25207 20.0625C7.22314 20.0553 7.20868 20.0155 7.20868 19.9432V16.6023L18.3378 5.47314L5.77686 15.1705L3.17355 12.5671C3.05785 12.4514 3 12.3285 3 12.1983C3 12.0103 3.10124 11.8585 3.30372 11.7428L20.1601 3.32541C20.3481 3.23864 20.4711 3.22417 20.5289 3.28202L20.811 3L20.5506 3.32541V3.3905Z" fill="currentColor"/>
</svg>
